Papirus/64x64/apps/bibletime.svg

<?xml version="1.0" encoding="UTF-8" standalone="no"?>
<svg
   id="_图层_1"
   version="1.1"
   viewBox="0 0 64 64" width="64" height="64"
   sodipodi:docname="bibletime.svg"
   xml:space="preserve"
   inkscape:version="1.4 (e7c3feb100, 2024-10-09)"
   xmlns:inkscape="http://www.inkscape.org/namespaces/inkscape"
   xmlns:sodipodi="http://sodipodi.sourceforge.net/DTD/sodipodi-0.dtd"
   xmlns="http://www.w3.org/2000/svg"
   xmlns:svg="http://www.w3.org/2000/svg"><sodipodi:namedview
     id="namedview26"
     pagecolor="#505050"
     bordercolor="#eeeeee"
     borderopacity="1"
     inkscape:showpageshadow="0"
     inkscape:pageopacity="0"
     inkscape:pagecheckerboard="0"
     inkscape:deskcolor="#505050"
     inkscape:zoom="10.6875"
     inkscape:cx="32"
     inkscape:cy="28.912281"
     inkscape:window-width="1920"
     inkscape:window-height="939"
     inkscape:window-x="0"
     inkscape:window-y="34"
     inkscape:window-maximized="1"
     inkscape:current-layer="g27" /><!-- Generator: Adobe Illustrator 29.0.1, SVG Export Plug-In . SVG Version: 2.1.0 Build 192)  --><defs
     id="defs6"><style
       id="style1">
      .st0 {
        fill-opacity: .5;
      }

      .st0, .st1, .st2, .st3, .st4, .st5, .st6, .st7 {
        fill: #fff;
      }

      .st8 {
        fill: #133c9a;
      }

      .st2, .st9 {
        display: none;
      }

      .st3 {
        fill-opacity: .2;
      }

      .st4 {
        fill-opacity: .9;
      }

      .st10 {
        fill: #3370ff;
      }

      .st11 {
        fill: url(#_未命名的渐变_3);
      }

      .st12 {
        fill: url(#_未命名的渐变);
      }

      .st5 {
        fill-opacity: .3;
      }

      .st6 {
        fill-opacity: 0;
      }

      .st7 {
        fill-opacity: .7;
      }

      .st13 {
        fill: #00d6b9;
      }

      .st14 {
        fill: url(#_未命名的渐变_2);
      }
    </style><radialGradient
       id="_未命名的渐变"
       data-name="未命名的渐变"
       cx="123.9"
       cy="-40.2"
       fx="123.9"
       fy="-40.2"
       r="59.4"
       gradientTransform="translate(-26.8 25.5) scale(.6 -.7)"
       gradientUnits="userSpaceOnUse"><stop
         offset="0"
         stop-color="#db202e"
         id="stop1" /><stop
         offset="1"
         stop-color="#e01b24"
         id="stop2" /></radialGradient><radialGradient
       id="_未命名的渐变_2"
       data-name="未命名的渐变 2"
       cx="67.6"
       cy="26.8"
       fx="67.6"
       fy="26.8"
       r="105.2"
       gradientTransform="translate(-26.6 25.3) scale(.6 -.7)"
       gradientUnits="userSpaceOnUse"><stop
         offset="0"
         stop-color="#ffb648"
         id="stop3" /><stop
         offset="1"
         stop-color="#ff7800"
         stop-opacity="0"
         id="stop4" /></radialGradient><radialGradient
       id="_未命名的渐变_3"
       data-name="未命名的渐变 3"
       cx="61.7"
       cy="18.6"
       fx="61.7"
       fy="18.6"
       r="68"
       gradientTransform="translate(-26.8 25.8) scale(.6 -.7)"
       gradientUnits="userSpaceOnUse"><stop
         offset="0"
         stop-color="#c64600"
         id="stop5" /><stop
         offset="1"
         stop-color="#a51d2d"
         id="stop6" /></radialGradient><style
       id="style1-2">
      .st0, .st1, .st2, .st3, .st4, .st5 {
        isolation: isolate;
      }

      .st0, .st1, .st6, .st7, .st5, .st8 {
        display: none;
      }

      .st0, .st3, .st4, .st5 {
        opacity: .2;
      }

      .st1 {
        opacity: .1;
      }

      .st1, .st9, .st2, .st4, .st5 {
        fill: #fff;
      }

      .st10 {
        fill: #3f3f3f;
      }

      .st2 {
        opacity: .3;
      }

      .st6 {
        fill: #505d6e;
      }

      .st11, .st8 {
        fill: #ffcca3;
      }

      .st12 {
        fill: #fed24c;
      }

      .st13 {
        fill: #c2352a;
      }
    </style></defs><path
     class="st1"
     d="M 47.5,64.1 H 13.8 C 6.2,64.1 0,57.8 0,50.3 V 13.7 C 0,6.2 6.2,0 13.7,0 H 50.3 C 57.8,0 64,6.2 64,13.7 V 50.3 C 64,57.8 57.8,64 50.3,64 h -2.9 0.1 z"
     id="path6"
     style="display:inline;opacity:1;fill:#3d65c2;fill-opacity:1" /><g
     id="g27"
     transform="matrix(1.1802036,0,0,1.0592593,-11.854668,-3.0549708)"><path
       style="opacity:0.2;stroke-width:1.17227"
       d="m 20.254175,3 c -4.694957,0 -10.1849,6.2079336 -10.174894,11.00042 l 0.07928,37.974132 c 0.0091,4.350288 5.72364,12.001343 9.54065,11.353751 l 0.520646,-0.08833 V 3 Z"
       id="path2"
       sodipodi:nodetypes="ssssccs" /><path
       style="opacity:0.2"
       d="M 32,12 V 22 H 22 v 8 h 10 v 22 h 8 V 30 H 50 V 22 H 40 V 12 Z"
       id="path3" /><path
       style="fill:#ffd972"
       d="M 32,11 V 21 H 22 v 8 h 10 v 22 h 8 V 29 H 50 V 21 H 40 V 11 Z"
       id="path4" /><circle
       style="opacity:0.2"
       cx="48"
       cy="47"
       r="16"
       id="circle4" /><circle
       style="fill:#ff982d"
       cx="48"
       cy="46"
       r="16"
       id="circle5" /><path
       style="fill:#ffffff"
       d="m 48,36 c -5.523,0 -10,4.477 -10,10 0,5.523 4.477,10 10,10 5.523,0 10,-4.477 10,-10 0,-5.523 -4.477,-10 -10,-10 z m 0,2 c 4.418,0 8,3.582 8,8 0,4.418 -3.582,8 -8,8 -4.418,0 -8,-3.582 -8,-8 0,-4.418 3.582,-8 8,-8 z m -1,2 v 7 h 7 v -2 h -5 v -5 z"
       id="path5" /></g></svg>

<svg xmlns="http://www.w3.org/2000/svg" width="64" height="64" version="1.1">
 <rect style="opacity:0.2" width="44" height="56" x="10" y="4" rx="3" ry="3"/>
 <rect style="fill:#3d65c2" width="44" height="56" x="10" y="3" rx="3" ry="3"/>
 <path style="opacity:0.2" d="M 13 3 C 11.338 3 10 4.338 10 6 L 10 56 C 10 57.662 11.338 59 13 59 L 18 59 L 18 3 L 13 3 z"/>
 <path style="opacity:0.2" d="M 32,12 V 22 H 22 v 8 h 10 v 22 h 8 V 30 H 50 V 22 H 40 V 12 Z"/>
 <path style="fill:#ffd972" d="M 32 11 L 32 21 L 22 21 L 22 29 L 32 29 L 32 51 L 40 51 L 40 29 L 50 29 L 50 21 L 40 21 L 40 11 L 32 11 z"/>
 <circle style="opacity:0.2" cx="48" cy="47" r="16"/>
 <circle style="fill:#ff982d" cx="48" cy="46" r="16"/>
 <path style="fill:#ffffff" d="M 48,36 C 42.477,36 38,40.477 38,46 38,51.523 42.477,56 48,56 53.523,56 58,51.523 58,46 58,40.477 53.523,36 48,36 Z M 48,38 C 52.418,38 56,41.582 56,46 56,50.418 52.418,54 48,54 43.582,54 40,50.418 40,46 40,41.582 43.582,38 48,38 Z M 47,40 V 47 H 54 V 45 H 49 V 40 Z"/>
 <path style="opacity:0.1;fill:#ffffff" d="M 13 3 C 11.338 3 10 4.338 10 6 L 10 7 C 10 5.338 11.338 4 13 4 L 51 4 C 52.662 4 54 5.338 54 7 L 54 6 C 54 4.338 52.662 3 51 3 L 13 3 z"/>
</svg>
